X: 672
T: Ettiğiyçün Aşk İle
C: Ahmet Avni Konuk
O: Turkey
F: http://compmusic.upf.edu/node/140
N: dugah--kupe--duyek--itdiguycun--ahmet_avni_konuk
N: makam= dugah
N: form= kupe
N: usul= duyek = 8/4
M: 8/4
L: 1/16
K: C _1/4B _7/8d  
Q: 1/4=57
%%MIDI tuningsystem comma53
z4 A2_3/4B2 A4 B4 c2_3/4d2 c2d2 dcBA B2c2  | \
w:  Et *  *  ti ğiy *  *  *  çün   | 
_3/4B4 B2c2 B4 A2_7/8B2 A2^GF G2A2 A3B A4  | 
w:  *  aşk  *  *  i *  le  *  *  *  *  subh_  | 
z4 A2G2 A4 _3/4B4 c2_3/4d2 c2d2 dcBA B2c2  | \
w:  u  *  *  me sâ  *  *  *  fer  | 
_3/4B4 c2_2/4d2 c4 d2ef eddc B2dc c6z2  | 
w:  *  yâd_ *  *  ü  *  *  âh    | 
z4 =d8 c2d2 e2f2 e2d2 d2c4_3/4BA  | \
w:  Ol du  *  ey  *  *  *  çeşm_  | 
_3/4B4 A2A2 B4 =d4 c2d2 c2B2 c2cB A4  | 
w:  *  i  *  *  ga zâ *  *  *  lim   | 
z4 A2c2 _B4 A2B2 A2^GF G2A2 G4 A4  | \
w:  per *  *  de  *  i  *  *  *  *  â  | 
A2c2 c2_7/8B2 B2c2 B2A2 ^G2A2 B2BA A6z2  | 
w:  *  *  hım  *  *  *  Dü *  gâh    | 
|


